assets/images/script/t-3-mid.svg

<svg fill="none" height="70" viewBox="0 0 330 70" width="330" xmlns="http://www.w3.org/2000/svg"><g stroke="#000" stroke-linecap="round" stroke-width="5"><path d="m37.465 35.2475c-8.1938 0 16.5621.3421 24.5318-1.5611 16.1966-3.8678 13.3406-16.2952 1.3381-24.97784-14.4888-10.48131-34.9432-4.03282-48.4689 4.83204-20.19987 13.2391-13.21808 33.2035 5.9471 43.1165 26.1751 13.5389 59.3015 13.9606 84.8209-1.4124 14.231-8.5729 26.122-30.8875 20.74-47.7999-.628-1.9754-2.001-2.62651-1.635.29735 1.01 8.08045 6.385 15.81785 10.705 22.45035 9.082 13.9443 21.02 31.1135 37.169 37.1694"/><path d="m161.908 4.47119c.296 0 10.662 18.66921 12.638 23.49111 8.175 19.9473 13.536 32.0961 36.872 33.7498 27.135 1.923 54.383-1.7006 81.55-.9664 10.694.2891 21.087 2.2248 31.52 4.4604 7.14 1.5301-.492 1.799-3.346 2.1558"/></g></svg>

<svg width="330" height="70" viewBox="0 0 330 70" fill="none" xmlns="http://www.w3.org/2000/svg">
<path d="M37.465 35.2475C29.2712 35.2475 54.0271 35.5896 61.9968 33.6864C78.1934 29.8186 75.3374 17.3912 63.3349 8.70856C48.8461 -1.77275 28.3917 4.67574 14.866 13.5406C-5.33387 26.7797 1.64792 46.7441 20.8131 56.6571C46.9882 70.196 80.1146 70.6177 105.634 55.2447C119.865 46.6718 131.756 24.3572 126.374 7.4448C125.746 5.4694 124.373 4.81829 124.739 7.74215C125.749 15.8226 131.124 23.56 135.444 30.1925C144.526 44.1368 156.464 61.306 172.613 67.3619" stroke="black" stroke-width="5" stroke-linecap="round"/>
<path d="M161.908 4.47119C162.204 4.47119 172.57 23.1404 174.546 27.9623C182.721 47.9096 188.082 60.0584 211.418 61.7121C238.553 63.6351 265.801 60.0115 292.968 60.7457C303.662 61.0348 314.055 62.9705 324.488 65.2061C331.628 66.7362 323.996 67.0051 321.142 67.3619" stroke="black" stroke-width="5" stroke-linecap="round"/>
</svg>
